img/home.svg

<svg fill="none" height="30" viewBox="0 0 30 30" width="30" xmlns="http://www.w3.org/2000/svg" xmlns:xlink="http://www.w3.org/1999/xlink"><mask id="a" height="30" maskUnits="userSpaceOnUse" width="30" x="0" y="0"><path d="m0 0h30v30h-30z" fill="#d9d9d9"/></mask><g mask="url(#a)"><path d="m7.5 23.75h3.75v-7.5h7.5v7.5h3.75v-11.25l-7.5-5.625-7.5 5.625zm-2.5 2.5v-15l10-7.5 10 7.5v15h-8.75v-7.5h-2.5v7.5z" fill="#fff"/></g></svg>

<svg width="30" height="30" viewBox="0 0 30 30" fill="none" xmlns="http://www.w3.org/2000/svg">
<mask id="mask0_271_154" style="mask-type:alpha" maskUnits="userSpaceOnUse" x="0" y="0" width="30" height="30">
<rect width="30" height="30" fill="#D9D9D9"/>
</mask>
<g mask="url(#mask0_271_154)">
<path d="M7.5 23.75H11.25V16.25H18.75V23.75H22.5V12.5L15 6.875L7.5 12.5V23.75ZM5 26.25V11.25L15 3.75L25 11.25V26.25H16.25V18.75H13.75V26.25H5Z" fill="white"/>
</g>
</svg>
